assets/svg/logout.svg

<?xml version="1.0" encoding="UTF-8" standalone="no"?>
<!-- Created with Inkscape (http://www.inkscape.org/) -->

<svg
        xmlns:dc="http://purl.org/dc/elements/1.1/"
        xmlns:cc="http://creativecommons.org/ns#"
        xmlns:rdf="http://www.w3.org/1999/02/22-rdf-syntax-ns#"
        xmlns:sodipodi="http://sodipodi.sourceforge.net/DTD/sodipodi-0.dtd"
        xmlns:inkscape="http://www.inkscape.org/namespaces/inkscape"
        xmlns="http://www.w3.org/2000/svg"
        width="100"
        height="100"
        viewBox="0 0 26.458333 26.458334"
        version="1.1"
        id="svg8"
        sodipodi:docname="logout.svg"
        inkscape:version="0.92.4 (5da689c313, 2019-01-14)">
    <defs
            id="defs2"/>
    <sodipodi:namedview
            id="base"
            pagecolor="#ffffff"
            bordercolor="#666666"
            borderopacity="1.0"
            inkscape:pageopacity="0.0"
            inkscape:pageshadow="2"
            inkscape:zoom="2.8284271"
            inkscape:cx="23.385148"
            inkscape:cy="69.345626"
            inkscape:document-units="px"
            inkscape:current-layer="layer1"
            showgrid="false"
            units="px"
            showguides="true"
            inkscape:guide-bbox="true"
            inkscape:window-width="1680"
            inkscape:window-height="1013"
            inkscape:window-x="0"
            inkscape:window-y="0"
            inkscape:window-maximized="1"
            inkscape:snap-nodes="false">
        <sodipodi:guide
                position="13.229167,23.859748"
                orientation="1,0"
                id="guide815"
                inkscape:locked="false"/>
        <sodipodi:guide
                position="14.944824,13.229167"
                orientation="0,1"
                id="guide817"
                inkscape:locked="false"/>
    </sodipodi:namedview>
    <metadata
            id="metadata5">
        <rdf:RDF>
            <cc:Work
                    rdf:about="">
                <dc:format>image/svg+xml</dc:format>
                <dc:type
                        rdf:resource="http://purl.org/dc/dcmitype/StillImage"/>
                <dc:title/>
            </cc:Work>
        </rdf:RDF>
    </metadata>
    <g
            inkscape:label="Layer 1"
            inkscape:groupmode="layer"
            id="layer1"
            transform="translate(0,-270.54165)">
        <path
                style="fill:none;stroke:#000000;stroke-width:2.80336833;stroke-linecap:round;stroke-linejoin:round;stroke-miterlimit:4;stroke-dasharray:none;stroke-opacity:1"
                d="m 18.611217,277.1845 c 0,0 6.517226,4.80116 6.540324,6.59809 0.02311,1.79692 -6.540324,6.61409 -6.540324,6.61409"
                id="path821"
                inkscape:connector-curvature="0"/>
        <path
                style="fill:none;stroke:#000000;stroke-width:2.38125001;stroke-linecap:round;stroke-linejoin:miter;stroke-miterlimit:4;stroke-dasharray:none;stroke-opacity:1"
                d="M 24.831034,283.7682 H 9.9804997 v 0"
                id="path815"
                inkscape:connector-curvature="0"/>
        <path
                style="fill:none;stroke:#000000;stroke-width:2.21004868;stroke-linecap:round;stroke-linejoin:round;stroke-miterlimit:4;stroke-dasharray:none;stroke-opacity:1"
                d="m 11.765496,277.99911 v -2.01547 c 0,-2.34108 -1.8943631,-2.37258 -1.8943631,-2.37258 0,0 -3.7205638,-0.0526 -6.0661374,-0.0526 -2.3455737,0 -2.087099,2.36246 -2.087099,2.36246 l -0.015829,7.9293"
                id="path819"
                inkscape:connector-curvature="0"
                sodipodi:nodetypes="cscscc"/>
        <path
                style="fill:none;stroke:#000000;stroke-width:2.21004868;stroke-linecap:round;stroke-linejoin:round;stroke-miterlimit:4;stroke-dasharray:none;stroke-opacity:1"
                d="m 11.765496,289.70121 v 2.01546 c 0,2.34108 -1.8943631,2.37258 -1.8943631,2.37258 0,0 -3.7205636,0.0527 -6.0661373,0.0527 -2.3455738,0 -2.1574723,-2.33048 -2.1574723,-2.33048 l 0.054544,-7.96128"
                id="path819-3"
                inkscape:connector-curvature="0"
                sodipodi:nodetypes="cscscc"/>
    </g>
</svg>

<?xml version="1.0" encoding="UTF-8" standalone="yes"?>
<svg xmlns="http://www.w3.org/2000/svg" xmlns:xlink="http://www.w3.org/1999/xlink" width="375px" height="375px" viewBox="0 0 375 375" version="1.1">
  <g id="surface1">
    <path style="fill:none;stroke-width:2.803368;stroke-linecap:round;stroke-linejoin:round;stroke:rgb(0%,0%,0%);stroke-opacity:1;stroke-miterlimit:4;" d="M 18.611232 277.184628 C 18.611232 277.184628 25.128526 281.985713 25.151677 283.782675 C 25.174553 285.579636 18.611232 290.396707 18.611232 290.396707 " transform="matrix(14.173228,0,0,14.173228,0.0000135166,-3834.448583)"/>
    <path style="fill:none;stroke-width:2.38125;stroke-linecap:round;stroke-linejoin:miter;stroke:rgb(0%,0%,0%);stroke-opacity:1;stroke-miterlimit:4;" d="M 24.831145 283.768067 L 9.980579 283.768067 " transform="matrix(14.173228,0,0,14.173228,0.0000135166,-3834.448583)"/>
    <path style="fill:none;stroke-width:2.210049;stroke-linecap:round;stroke-linejoin:round;stroke:rgb(0%,0%,0%);stroke-opacity:1;stroke-miterlimit:4;" d="M 11.765414 277.999048 L 11.765414 275.983529 C 11.765414 273.642518 9.871162 273.611099 9.871162 273.611099 C 9.871162 273.611099 6.150459 273.558458 3.805038 273.558458 C 1.459342 273.558458 1.717862 275.920967 1.717862 275.920967 L 1.702152 283.850198 " transform="matrix(14.173228,0,0,14.173228,0.0000135166,-3834.448583)"/>
    <path style="fill:none;stroke-width:2.210049;stroke-linecap:round;stroke-linejoin:round;stroke:rgb(0%,0%,0%);stroke-opacity:1;stroke-miterlimit:4;" d="M 11.765414 289.701073 L 11.765414 291.716592 C 11.765414 294.057879 9.871162 294.089298 9.871162 294.089298 C 9.871162 294.089298 6.150459 294.141939 3.805038 294.141939 C 1.459342 294.141939 1.647582 291.811401 1.647582 291.811401 L 1.702152 283.850198 " transform="matrix(14.173228,0,0,14.173228,0.0000135166,-3834.448583)"/>
  </g>
</svg>
